X:76802
T:Longueval (Trio)
H: The melody is named after a village in France, one of the first objectives for the allies in the Battle of the Somme, July, 1916. The attack was a disaster; the British incurred some sixty thousand casualties the first day, one third of which were killed in action.
C:PM George Stoddart
B: 
O:Arranged by Kevin Fraser
Z:Kevin Fraser
Q:3/8=60
M:6/8
L:1/8
K:HP
R:Aire
U: R = ///
U: r = //
U: V = !accent!
V:M gstem=up stem=down name="Melody" sname="Melody"
V:H gstem=up stem=down name="Harmony" sname="Harmony"
V:C gstem=up stem=down name="C-Harmony" sname=C-Harmony"
V:S gstem=up stem=down dyn=up stafflines=1 clef=perc middle=G name="Snare" sname="Snare" sname="Snare"
V:B gstem=up stem=down clef=none dyn=up name="Bass" sname="Bass"
V:T gstem=up stem=down clef=none dyn=up name="Tenor" sname="Tenor"
V:BB gstem=up stem=down name="Brass Bass" sname="ABCD-C" transpose=-1  octave=-1 clef=bass
V:BC gstem=up stem=down name="Brass Chord" sname="ABCD-D" transpose=-1
V:BD gstem=up stem=down name="Brass Chord 2" sname="ABCD-B" transpose=-1
V:P gstem=up stem=down name="Piano" octave=-1
I:MIDI=program 110
%%MIDI gracedivider 4
%%MIDI gchord
%%MIDI beatstring 
%%landscape
I:linebreak $
% %score {M (BS)}
%%MIDI program 109 #bagpipes
%%MIDI vol 100
V:M
          [| {g}A>{d}B{e}A {g}Adf      | {g}B>{d}c{e}B {g}B{Gdc}df  | a-a/2>g/2{a}e/2>c/2  a-a/2>g/2{a}e/2>c/2 | {g}B{d}c{e}B {G}A3         | $
V:M
          | {g}A>{d}B{e}A {g}Adf      | {g}B>{d}c{e}B {g}B{Gdc}df  | a-a/2>g/2{a}e/2>c/2  a-a/2>g/2{a}e/2>c/2 | {g}A{d}B{e}c {Gdc}d3       |] $
V:M
          [| {g}f>gf {gfg}fed          | {gdc}dca {cd}c2 {e}A       | {gf}g>a{f}g {f}gfe                       | {gef}eda {fgf}f2{AGAG}A    | $
V:M
          | {g}f>gf {gfg}fed          | {gdc}dca {cd}c2 {e}A       | a-a/2>g/2{a}e/2>c/2  a-a/2>g/2{a}e/2>c/2 | {g}A{d}B{e}c {Gdc}d3       |] $
V:M
          [| {g}A{d}B{e}c {Gdc}d{g}ed  | {gdc}dc{e}B {gcd}c2{e}A    | {gf}g>a{f}g {f}gfe                       | {gef}eda {fgf}f2{AGAG}A    | $
V:M
          | {g}A{d}B{e}c {Gdc}d{g}ed  | {gdc}dc{e}B {gcd}c2{e}A    | a-a/2>g/2{a}e/2>c/2  a-a/2>g/2{a}e/2>c/2 | {g}A{d}B{e}c {Gdc}d3       |] $
V:H
          [| {g}A>{d}B{e}A {gfg}f2d    | {g}B>{d}c{e}B {g}G2{d}B    | {g}c2{G}c  c-c/2>A/2{a}c/2>e/2           | {gf}gag {a}f3              |  $
V:H
           | {g}A>{d}B{e}A {gfg}f2d    | {g}B>{d}c{e}B {g}G2{d}B    | {g}c2{G}c  c-c/2>A/2{a}c/2>e/2           | {gf}gfe      {Gdc}d3       |]  $
V:H
          [| {g}A2d {g}dgf             | {gfg}fec {ag}a2c           | {gef}e2{A}e {g}eAg                       | {f}g2f {Gdc}d3             |  $
V:H
           | {g}A2d {g}dgf             | {gfg}fec {ag}a2c           | {g}c2{G}c  c-c/2>A/2{a}c/2>e/2           | {gf}gfe      {Gdc}d3       |]  $
V:H
          [| {gfg}f3 {e}f2g            | {ag}a2f {gef}e3            | {g}c3 {GdG}c2g                           | {a}gag {a}fag              |  $
V:H
           | {gfg}f3 {e}f2g            | {ag}a2f {gef}e3            | {g}c2{G}c  c-c/2>A/2{a}c/2>e/2           | {gf}gfe      {Gdc}d3       |]  $
V:C
          [| {g}A>{d}B{e}A {Gdc}d3     | {g}B>{d}c{e}B {Gdc}d3      | {gef}e2{AGAG}A {gef}e2{AGAG}A            | {g}ef{g}e {Gdc}d3          |  $
V:C
           | {g}A>{d}B{e}A {Gdc}d3     | {g}B>{d}c{e}B {Gdc}d3      | {gef}e2{AGAG}A {gef}e2{AGAG}A            | {g}edc    {Gdc}d3          |]  $
V:C
          [| {g}d2A {g}A2{GAG}A        | {g}A2e {A}e3               | {gcd}c2{A}c {g}cdc                       | {g}cAd {GBG}A3             |  $
V:C
           | {g}d2A {g}A2{GAG}A        | {g}A2e {A}e3               | {gef}e2{AGAG}A  {gef}e2{AGAG}A           | {g}edc    {Gdc}d3          |]  $
V:C
          [| {g}d{e}dA f{g}A{d}A       | {g}f{g}fd aAa              | e{g}eA e{g}A{d}A                         | {g}ef{g}e {g}dfe           |  $
V:C
           | {g}d{e}dA f{g}A{d}A       | {g}f{g}fd aAa              | {gef}e2{AGAG}A  {gef}e2{AGAG}A           | {g}edc    {Gdc}d3          |]  $
%%MIDI drum z 38
V:S
 	[|{cc}A>cA {A}cAc | {cc}AcA (Rc3 | c)>Ac {cc}A>cA | {A}cAc (Rc2c) | $
V:S
	| {cc}A>cA {A}cAc | {cc}AcA (Rc3 | c)>Ac {cc}A>cA | {A}cAc (Rc2c)  |] $
V:S
 	[|{cc}A>cA {A}cAc | {cc}AcA (Rc3 | c)>Ac {cc}A>cA | {A}cAc (Rc2c)  | $
V:S
	| {cc}A>cA {A}cAc | {cc}AcA (Rc3 | c)>Ac {cc}A>cA | {A}cAc (Rc2c)  |] $
V:S
 	[|{cc}A>cA {A}cAc | {cc}AcA (Rc3 | c)>Ac {cc}A>cA | {A}cAc (Rc2c)  | $
V:S
	| {cc}A>cA {A}cAc | {cc}AcA (Rc3 | c)>Ac {cc}A>cA | {A}cAc (Rc2c)  |] $
%%MIDI drum z 35
V:B
 [| A3 A3 | A3 A3 | A3 A3 | A3 A3 | $
V:B
  | A3 A3 | A3 A3 | A3 A3 | A3 A3 |] $
V:B
 [| A3 A3 | A3 A3 | A3 A3 | A3 A3 | $
V:B
  | A3 A3 | A3 A3 | A3 A3 | A3 A3 |] $
V:B
 [| A3 A3 | A3 A3 | A3 A3 | A3 A3 | $
V:B
  | A3 A3 | A3 A3 | A3 A3 | A3 A3 |] $





